dist/images/icon/phone.svg

<svg width="25" height="25" viewBox="0 0 25 25" fill="none" xmlns="http://www.w3.org/2000/svg">
<path d="M21.5252 19.5533C21.5252 19.5533 20.3183 20.7388 20.0225 21.0863C19.5407 21.6005 18.973 21.8433 18.2288 21.8433C18.1572 21.8433 18.0809 21.8433 18.0093 21.8385C16.5925 21.748 15.2758 21.1958 14.2883 20.7245C11.5882 19.42 9.21728 17.5681 7.24705 15.221C5.62031 13.2643 4.53263 11.4553 3.81228 9.51286C3.36862 8.32742 3.20642 7.40383 3.27798 6.53261C3.32569 5.9756 3.54036 5.51381 3.93631 5.11866L5.56306 3.49524C5.79681 3.27625 6.04488 3.15723 6.28818 3.15723C6.58872 3.15723 6.83202 3.33814 6.98467 3.49048L6.99899 3.50476C7.28999 3.77613 7.56668 4.05701 7.85768 4.35694C8.00556 4.50929 8.15822 4.66163 8.31088 4.81874L9.61323 6.11843C10.1189 6.62307 10.1189 7.08962 9.61323 7.59427C9.47488 7.73233 9.34131 7.87039 9.20296 8.00369C8.80224 8.41312 9.11703 8.09897 8.702 8.47031C8.69246 8.47983 8.68292 8.48459 8.67814 8.49411C8.26788 8.90354 8.34421 9.30344 8.43008 9.57481L8.44439 9.61765C8.7831 10.4365 9.26015 11.2078 9.98527 12.1266L9.99004 12.1313C11.3067 13.75 12.6949 15.0116 14.2263 15.978C14.4218 16.1018 14.6222 16.2018 14.813 16.297C14.9848 16.3827 15.147 16.4636 15.2853 16.5493C15.3044 16.5589 15.3235 16.5731 15.3426 16.5827C15.5048 16.6636 15.6574 16.7017 15.8148 16.7017C16.2108 16.7017 16.4589 16.4541 16.54 16.3732L17.475 15.44C17.6372 15.2781 17.8949 15.083 18.1954 15.083C18.4912 15.083 18.7345 15.2686 18.8823 15.4305L18.8919 15.44L21.5204 18.0632C22.0118 18.5488 21.5252 19.5533 21.5252 19.5533Z" fill="#202020"/>
<path d="M6.98467 3.49048C6.83202 3.33814 6.58872 3.15723 6.28818 3.15723C6.04488 3.15723 5.79681 3.27625 5.56306 3.49524L3.93631 5.11866C3.54036 5.51381 3.32569 5.9756 3.27798 6.53261C3.20642 7.40383 3.36862 8.32742 3.81228 9.51286C4.53263 11.4553 5.62031 13.2643 7.24705 15.221C9.21728 17.5681 11.5882 19.42 14.2883 20.7245C15.2758 21.1958 16.5925 21.748 18.0093 21.8385C18.0809 21.8433 18.1572 21.8433 18.2288 21.8433C18.973 21.8433 19.5407 21.6005 20.0225 21.0863C20.3183 20.7388 21.5252 19.5533 21.5252 19.5533C21.5252 19.5533 22.0118 18.5488 21.5204 18.0632L18.8919 15.44M6.98467 3.49048C6.98944 3.49524 6.99421 3.5 6.99899 3.50476M6.98467 3.49048L6.99899 3.50476M6.99899 3.50476C7.28999 3.77613 7.56668 4.05701 7.85768 4.35694C8.00556 4.50929 8.15822 4.66163 8.31088 4.81874L9.61323 6.11843C10.1189 6.62307 10.1189 7.08962 9.61323 7.59427C9.47488 7.73233 9.34131 7.87039 9.20296 8.00369C8.80224 8.41312 9.11703 8.09897 8.702 8.47031C8.69246 8.47983 8.68291 8.48459 8.67814 8.49411C8.26788 8.90354 8.34421 9.30344 8.43008 9.57481M8.43008 9.57481C8.43485 9.58909 8.43962 9.60337 8.44439 9.61765M8.43008 9.57481L8.44439 9.61765M8.44439 9.61765C8.7831 10.4365 9.26015 11.2078 9.98527 12.1266L9.99004 12.1313C11.3067 13.75 12.6949 15.0116 14.2263 15.978C14.4218 16.1018 14.6222 16.2018 14.813 16.297C14.9848 16.3827 15.147 16.4636 15.2853 16.5493C15.3044 16.5589 15.3235 16.5731 15.3426 16.5827C15.5048 16.6636 15.6574 16.7017 15.8148 16.7017C16.2108 16.7017 16.4589 16.4541 16.54 16.3732L17.475 15.44C17.6372 15.2781 17.8949 15.083 18.1954 15.083C18.4912 15.083 18.7345 15.2686 18.8823 15.4305M18.8823 15.4305C18.8871 15.4353 18.8871 15.4353 18.8919 15.44M18.8823 15.4305L18.8919 15.44" stroke="#202020" stroke-width="2" stroke-linecap="round" stroke-linejoin="round"/>
</svg>

<svg width="25" height="25" fill="none" xmlns="http://www.w3.org/2000/svg"><path d="M21.525 19.553s-1.207 1.186-1.502 1.533c-.482.515-1.05.757-1.794.757-.072 0-.148 0-.22-.005-1.416-.09-2.733-.642-3.72-1.114a21.185 21.185 0 01-7.042-5.503c-1.627-1.957-2.714-3.766-3.435-5.708-.443-1.186-.606-2.11-.534-2.98a2.184 2.184 0 01.658-1.414l1.627-1.624c.234-.219.482-.338.725-.338.3 0 .544.181.697.333l.014.015c.291.271.568.552.859.852l.453.462 1.302 1.3c.506.504.506.97 0 1.475-.138.138-.272.276-.41.41-.4.41-.086.095-.501.466-.01.01-.02.015-.024.024-.41.41-.334.81-.248 1.08l.014.044c.34.819.816 1.59 1.541 2.509l.005.004c1.317 1.619 2.705 2.88 4.236 3.847.196.124.396.224.587.319.172.086.334.167.472.252.02.01.038.024.058.034.162.08.314.119.472.119.396 0 .644-.248.725-.329l.935-.933c.162-.162.42-.357.72-.357.296 0 .54.186.687.348l.01.009 2.628 2.623c.492.486.005 1.49.005 1.49z" fill="#202020"/><path d="M6.985 3.49c-.153-.152-.396-.333-.697-.333-.243 0-.491.12-.725.338L3.936 5.12c-.396.395-.61.857-.658 1.414-.072.87.09 1.794.534 2.98.72 1.942 1.808 3.751 3.435 5.708a21.185 21.185 0 007.041 5.503c.988.472 2.305 1.024 3.721 1.114.072.005.148.005.22.005.744 0 1.312-.242 1.794-.757.295-.347 1.502-1.533 1.502-1.533s.487-1.004-.005-1.49l-2.628-2.623M6.985 3.49l.014.015m-.014-.015l.014.015m0 0c.291.271.568.552.859.852l.453.462 1.302 1.3c.506.504.506.97 0 1.475-.138.138-.272.276-.41.41-.4.41-.086.095-.501.466-.01.01-.02.015-.024.024-.41.41-.334.81-.248 1.08m0 0l.014.044m-.014-.043l.014.043m0 0c.34.819.816 1.59 1.541 2.509l.005.004c1.317 1.619 2.705 2.88 4.236 3.847.196.124.396.224.587.319.172.086.334.167.472.252.02.01.038.024.058.034.162.08.314.119.472.119.396 0 .644-.248.725-.329l.935-.933c.162-.162.42-.357.72-.357.296 0 .54.186.687.348m0 0l.01.009m-.01-.01l.01.01" stroke="#202020" stroke-width="2" stroke-linecap="round" stroke-linejoin="round"/></svg>
